dist/landing-a/assets/images/stars.svg

<svg width="200" height="227" viewBox="0 0 200 227" fill="none" xmlns="http://www.w3.org/2000/svg">
<path d="M58 91L67.4135 72.173C70.5994 65.8013 72.1923 62.6154 74.3204 59.8546C76.2087 57.4049 78.4049 55.2087 80.8546 53.3204C83.6154 51.1923 86.8013 49.5994 93.173 46.4135L112 37L93.173 27.5865C86.8013 24.4006 83.6154 22.8077 80.8546 20.6796C78.4049 18.7913 76.2087 16.5951 74.3204 14.1454C72.1923 11.3846 70.5994 8.19874 67.4135 1.827L58 -17L48.5865 1.827C45.4006 8.19873 43.8077 11.3846 41.6796 14.1454C39.7913 16.5951 37.5951 18.7913 35.1454 20.6796C32.3846 22.8077 29.1987 24.4006 22.827 27.5865L4 37L22.827 46.4135C29.1987 49.5994 32.3846 51.1923 35.1454 53.3204C37.5951 55.2087 39.7913 57.4049 41.6796 59.8546C43.8077 62.6154 45.4006 65.8013 48.5865 72.173L58 91Z" stroke="black" stroke-width="8" stroke-linecap="round" stroke-linejoin="round"/>
<path d="M160 223L174.143 186.227C177.528 177.428 179.22 173.029 181.851 169.328C184.183 166.049 187.049 163.183 190.328 160.851C194.029 158.22 198.428 156.528 207.227 153.143L244 139L207.227 124.857C198.428 121.472 194.029 119.78 190.328 117.149C187.049 114.817 184.183 111.951 181.851 108.672C179.22 104.971 177.528 100.572 174.143 91.773L160 55L145.857 91.773C142.472 100.572 140.78 104.971 138.149 108.672C135.817 111.951 132.951 114.817 129.672 117.149C125.971 119.78 121.572 121.472 112.773 124.857L76 139L112.773 153.143C121.572 156.528 125.971 158.22 129.672 160.851C132.951 163.183 135.817 166.049 138.149 169.328C140.78 173.029 142.472 177.428 145.857 186.227L160 223Z" stroke="black" stroke-width="8" stroke-linecap="round" stroke-linejoin="round"/>
</svg>

<svg width="200" height="227" fill="none" xmlns="http://www.w3.org/2000/svg"><path d="M58 91l9.413-18.827c3.186-6.372 4.78-9.558 6.907-12.318a36 36 0 016.535-6.535c2.76-2.128 5.946-3.72 12.318-6.907L112 37l-18.827-9.413c-6.372-3.186-9.558-4.78-12.318-6.907a36 36 0 01-6.535-6.535c-2.128-2.76-3.72-5.946-6.906-12.318L58-17 48.587 1.827c-3.186 6.372-4.78 9.558-6.907 12.318a36 36 0 01-6.535 6.535c-2.76 2.128-5.946 3.72-12.318 6.907L4 37l18.827 9.413c6.372 3.186 9.558 4.78 12.318 6.907a36 36 0 016.535 6.535c2.128 2.76 3.72 5.946 6.907 12.318L58 91zm102 132l14.143-36.773c3.385-8.799 5.077-13.198 7.708-16.899a36.022 36.022 0 018.477-8.477c3.701-2.631 8.1-4.323 16.899-7.708L244 139l-36.773-14.143c-8.799-3.385-13.198-5.077-16.899-7.708a36.022 36.022 0 01-8.477-8.477c-2.631-3.701-4.323-8.1-7.708-16.899L160 55l-14.143 36.773c-3.385 8.799-5.077 13.198-7.708 16.899a36.022 36.022 0 01-8.477 8.477c-3.701 2.631-8.1 4.323-16.899 7.708L76 139l36.773 14.143c8.799 3.385 13.198 5.077 16.899 7.708a36.022 36.022 0 018.477 8.477c2.631 3.701 4.323 8.1 7.708 16.899L160 223z" stroke="#000" stroke-width="8" stroke-linecap="round" stroke-linejoin="round"/></svg>
